; generated by PrusaSlicer 2.1.0+ on 2019-10-19 at 09:45:57 UTC

; 

; external perimeters extrusion width = 0.60mm
; perimeters extrusion width = 0.50mm
; infill extrusion width = 0.50mm
; solid infill extrusion width = 0.50mm
; top infill extrusion width = 0.45mm
; first layer extrusion width = 0.42mm

M73 P0 R281
M73 Q0 S283
M201 X1000 Y1000 Z1000 E5000 ; sets maximum accelerations, mm/sec^2
M203 X200 Y200 Z12 E120 ; sets maximum feedrates, mm/sec
M204 P1250 R1250 T1250 ; sets acceleration (P, T) and retract acceleration (R), mm/sec^2
M205 X8.00 Y8.00 Z0.40 E1.50 ; sets the jerk limits, mm/sec
M205 S0 T0 ; sets the minimum extruding and travel feed rate, mm/sec
M107
M862.3 P "MK3" ; printer model check
M862.1 P0.4 ; nozzle diameter check
M115 U3.8.0 ; tell printer latest fw version
G90 ; use absolute coordinates
M83 ; extruder relative mode
M104 S240 ; set extruder temp
M140 S85 ; set bed temp
M190 S85 ; wait for bed temp
M109 S240 ; wait for extruder temp
G28 W ; home all without mesh bed level
G80 ; mesh bed leveling
G1 Y-3.0 F1000.0 ; go outside print area
G92 E0.0
G1 X60.0 E9.0 F1000.0 ; intro line
M73 Q0 S283
M73 P0 R281
G1 X100.0 E12.5 F1000.0 ; intro line
G92 E0.0
M221 S95
G21 ; set units to millimeters
G90 ; use absolute coordinates
M83 ; use relative distances for extrusion
M900 K45 ; Filament gcode
;BEFORE_LAYER_CHANGE
G92 E0.0
;0.36


G1 E-1.40000 F2100.00000
G1 Z0.200 F10800.000
G1 Z0.360
;AFTER_LAYER_CHANGE
;0.36
G1 Z0.560
G1 X9.609 Y18.709
G1 Z0.360
G1 E1.40000 F2100.00000
M204 S1000
G1 F1200
G1 X9.885 Y18.170 E0.03109
G1 X10.228 Y17.789 E0.02627
G1 X10.653 Y17.497 E0.02646
G1 X11.135 Y17.313 E0.02646
G1 X11.646 Y17.249 E0.02646
G1 X148.164 Y17.249 E7.00318
G1 X232.271 Y27.901 E4.34905
G1 X232.764 Y28.029 E0.02609
G1 X233.213 Y28.267 E0.02609
G1 X233.594 Y28.604 E0.02609
G1 X233.887 Y29.020 E0.02609
G1 X234.070 Y29.475 E0.02516
G1 X234.146 Y29.955 E0.02497
G1 X240.509 Y179.897 E7.69872
G1 X240.508 Y186.098 E0.31811
G1 X240.391 Y186.693 E0.03109
G1 X240.115 Y187.232 E0.03109
G1 X239.778 Y187.608 E0.02590
G1 X239.363 Y187.897 E0.02590
G1 X238.893 Y188.081 E0.02590
G1 X238.397 Y188.153 E0.02571
G1 X31.615 Y192.624 E10.61012
G1 X30.640 Y192.597 E0.05007
G1 X28.945 Y192.373 E0.08769
G1 X27.211 Y191.783 E0.09396
G1 X25.655 Y190.930 E0.09102
G1 X24.365 Y189.845 E0.08648
G1 X23.374 Y188.567 E0.08296
G1 X16.161 Y177.093 E0.69524
G1 X15.956 Y176.647 E0.02516
G1 X15.856 Y176.167 E0.02516
G1 X9.491 Y25.501 E7.73587
G1 X9.492 Y19.304 E0.31790
G1 X9.597 Y18.768 E0.02801
G1 F8640
G1 X9.885 Y18.170 E-0.15328
G1 X10.228 Y17.789 E-0.11825
G1 X10.653 Y17.497 E-0.11908
G1 X11.135 Y17.313 E-0.11908
G1 X11.646 Y17.249 E-0.11908
G1 X14.683 Y17.249 E-0.70122
G1 E-0.07000 F2100.00000
G1 Z0.560 F10800.000
G1 X27.345 Y183.344
G1 Z0.360
G1 E1.40000 F2100.00000
G1 F1200
G1 X27.705 Y183.318 E0.01855
G1 X28.072 Y183.364 E0.01896
G1 X28.419 Y183.479 E0.01877
G1 X28.736 Y183.659 E0.01871
G1 X29.012 Y183.898 E0.01871
G1 X29.236 Y184.187 E0.01876
G1 X29.400 Y184.513 E0.01874
G1 X29.497 Y184.866 E0.01878
G1 X29.523 Y185.230 E0.01872
G1 X29.478 Y185.593 E0.01874
G1 X29.362 Y185.940 E0.01876
G1 X29.182 Y186.256 E0.01869
G1 X28.944 Y186.533 E0.01875
G1 X28.655 Y186.757 E0.01875
G1 X28.328 Y186.921 E0.01872
G1 X27.975 Y187.018 E0.01878
G1 X27.611 Y187.044 E0.01872
G1 X27.249 Y186.998 E0.01872
G1 X26.902 Y186.884 E0.01875
G1 X26.585 Y186.703 E0.01874
G1 X26.308 Y186.464 E0.01874
G1 X26.085 Y186.175 E0.01875
G1 X25.921 Y185.849 E0.01872
G1 X25.824 Y185.497 E0.01872
G1 X25.798 Y185.132 E0.01878
G1 X25.843 Y184.770 E0.01872
G1 X25.958 Y184.423 E0.01875
G1 X26.139 Y184.105 E0.01875
G1 X26.378 Y183.830 E0.01869
G1 X26.666 Y183.605 E0.01876
G1 X26.993 Y183.441 E0.01874
G1 X27.287 Y183.360 E0.01564
G1 X27.470 Y183.005 F10800.000
G1 F8640
G1 X27.705 Y183.318 E-0.09711
G1 X28.072 Y183.364 E-0.08533
G1 X28.419 Y183.479 E-0.08448
G1 X28.736 Y183.659 E-0.08420
G1 X29.012 Y183.898 E-0.08420
G1 X29.236 Y184.187 E-0.08444
G1 X29.400 Y184.513 E-0.08435
G1 X29.497 Y184.866 E-0.08452
G1 X29.523 Y185.230 E-0.08428
G1 X29.478 Y185.593 E-0.08434
G1 X29.362 Y185.940 E-0.08444
G1 X29.182 Y186.256 E-0.08415
G1 X28.944 Y186.533 E-0.08442
G1 X28.655 Y186.757 E-0.08439
G1 X28.328 Y186.921 E-0.08428
G1 X28.115 Y186.979 E-0.05108
G1 E-0.07000 F2100.00000
G1 Z0.560 F10800.000
G1 X33.733 Y183.701
G1 Z0.360
G1 E1.40000 F2100.00000
G1 F1200
G1 X33.786 Y183.272 E0.02216
G1 X33.922 Y182.861 E0.02223
G1 X34.137 Y182.484 E0.02224
G1 X34.419 Y182.158 E0.02214
G1 X34.761 Y181.892 E0.02222
G1 X35.148 Y181.698 E0.02220
G1 X35.565 Y181.584 E0.02218
G1 X35.993 Y181.553 E0.02200
G1 X36.427 Y181.606 E0.02243
G1 X36.838 Y181.743 E0.02225
G1 X37.214 Y181.957 E0.02217
G1 X37.541 Y182.240 E0.02217
G1 X37.807 Y182.581 E0.02222
G1 X38.000 Y182.968 E0.02220
G1 X38.116 Y183.386 E0.02225
G1 X38.146 Y183.818 E0.02219
G1 X38.093 Y184.247 E0.02220
G1 X37.956 Y184.658 E0.02222
G1 X37.743 Y185.033 E0.02214
G1 X37.460 Y185.362 E0.02224
G1 X37.117 Y185.627 E0.02223
G1 X36.731 Y185.821 E0.02216
G1 X36.312 Y185.936 E0.02225
G1 X35.881 Y185.966 E0.02219
G1 X35.452 Y185.913 E0.02216
G1 X35.041 Y185.777 E0.02223
G1 X34.665 Y185.562 E0.02221
G1 X34.337 Y185.280 E0.02221
G1 X34.072 Y184.937 E0.02223
G1 X33.878 Y184.551 E0.02216
G1 X33.763 Y184.134 E0.02219
G1 X33.737 Y183.761 E0.01917
G1 X34.079 Y183.737 F10800.000
G1 F1200
G1 X34.122 Y183.348 E0.02005
G1 X34.236 Y183.001 E0.01875
G1 X34.418 Y182.684 E0.01875
G1 X34.657 Y182.408 E0.01869
G1 X34.945 Y182.184 E0.01876
G1 X35.272 Y182.020 E0.01874
G1 X35.623 Y181.923 E0.01872
G1 X35.984 Y181.897 E0.01855
G1 X36.351 Y181.942 E0.01896
G1 X36.698 Y182.058 E0.01877
G1 X37.015 Y182.238 E0.01871
G1 X37.291 Y182.477 E0.01871
G1 X37.515 Y182.765 E0.01876
G1 X37.679 Y183.092 E0.01874
G1 X37.776 Y183.445 E0.01878
G1 X37.802 Y183.809 E0.01872
G1 X37.757 Y184.171 E0.01874
G1 X37.641 Y184.518 E0.01876
G1 X37.461 Y184.835 E0.01869
G1 X37.223 Y185.112 E0.01875
G1 X36.933 Y185.336 E0.01875
G1 X36.607 Y185.499 E0.01872
G1 X36.254 Y185.596 E0.01878
G1 X35.890 Y185.622 E0.01872
G1 X35.528 Y185.577 E0.01872
G1 X35.181 Y185.462 E0.01875
G1 X34.864 Y185.281 E0.01874
G1 X34.587 Y185.043 E0.01874
G1 X34.363 Y184.754 E0.01875
G1 X34.200 Y184.427 E0.01872
G1 X34.103 Y184.075 E0.01872
G1 X34.083 Y183.796 E0.01435
G1 X33.743 Y183.536 F10800.000
G1 F8640
G1 X34.122 Y183.348 E-0.10391
G1 X34.236 Y183.001 E-0.08439
G1 X34.418 Y182.684 E-0.08442
G1 X34.657 Y182.408 E-0.08415
G1 X34.945 Y182.184 E-0.08444
G1 X35.272 Y182.020 E-0.08434
G1 X35.623 Y181.923 E-0.08426
G1 X35.984 Y181.897 E-0.08349
G1 X36.351 Y181.942 E-0.08533
G1 X36.698 Y182.058 E-0.08448
G1 X37.015 Y182.238 E-0.08420
G1 X37.291 Y182.477 E-0.08420
G1 X37.515 Y182.765 E-0.08444
G1 X37.679 Y183.092 E-0.08434
G1 X37.776 Y183.445 E-0.08452
G1 X37.790 Y183.639 E-0.04508
G1 E-0.07000 F2100.00000
G1 Z0.560 F10800.000
G1 X26.961 Y187.264
G1 Z0.360
G1 E1.40000 F2100.00000
G1 F1200
G1 X27.174 Y187.334 E0.01149
G1 X27.602 Y187.388 E0.02216
G1 X28.034 Y187.357 E0.02219
G1 X28.452 Y187.242 E0.02225
G1 X28.838 Y187.049 E0.02216
G1 X29.181 Y186.783 E0.02223
G1 X29.464 Y186.455 E0.02224
G1 X29.677 Y186.080 E0.02214
G1 X29.814 Y185.669 E0.02222
G1 X29.867 Y185.239 E0.02220
G1 X29.837 Y184.808 E0.02219
G1 X29.722 Y184.390 E0.02225
G1 X29.528 Y184.003 E0.02220
G1 X29.262 Y183.661 E0.02222
G1 X28.935 Y183.378 E0.02217
G1 X28.559 Y183.165 E0.02217
G1 X28.148 Y183.028 E0.02225
G1 X27.714 Y182.974 E0.02243
G1 X27.286 Y183.005 E0.02200
G1 X26.869 Y183.120 E0.02218
G1 X26.482 Y183.314 E0.02220
G1 X26.306 Y183.451 E0.01149
G1 X26.393 Y183.227 E0.01237
G1 X26.620 Y182.791 E0.02519
G1 X26.900 Y182.369 E0.02600
G1 X27.231 Y181.965 E0.02680
G1 X27.610 Y181.582 E0.02761
G1 X28.034 Y181.227 E0.02838
G1 X28.499 Y180.901 E0.02912
G1 X28.999 Y180.610 E0.02970
G1 X29.532 Y180.356 E0.03028
G1 X30.091 Y180.143 E0.03067
G1 X30.467 Y180.032 E0.02014
G1 X30.519 Y179.961 E0.00448
G1 X31.116 Y179.673 E0.03401
G1 X32.222 Y179.335 E0.05932
G1 X33.589 Y179.046 E0.07168
G1 X36.337 Y178.574 E0.14302
G1 X36.675 Y178.840 E0.02206
G1 X37.204 Y179.345 E0.03753
G1 X37.681 Y179.898 E0.03747
G1 X38.100 Y180.497 E0.03749
G1 X38.459 Y181.134 E0.03750
G1 X38.755 Y181.802 E0.03750
G1 X38.982 Y182.497 E0.03750
G1 X39.141 Y183.210 E0.03749
G1 X39.229 Y183.936 E0.03749
G1 X39.246 Y184.667 E0.03750
G1 X39.191 Y185.395 E0.03750
G1 X39.064 Y186.115 E0.03750
G1 X38.869 Y186.820 E0.03749
G1 X38.604 Y187.500 E0.03747
G1 X38.274 Y188.153 E0.03753
G1 X38.044 Y188.515 E0.02199
G1 X35.296 Y188.987 E0.14307
G1 X33.911 Y189.172 E0.07167
G1 X32.756 Y189.221 E0.05930
G1 X32.095 Y189.148 E0.03408
G1 X32.021 Y189.098 E0.00458
G1 X31.631 Y189.120 E0.02004
G1 X31.034 Y189.105 E0.03063
G1 X30.448 Y189.044 E0.03026
G1 X29.879 Y188.936 E0.02971
G1 X29.331 Y188.784 E0.02914
G1 X28.813 Y188.591 E0.02839
G1 X28.329 Y188.357 E0.02759
G1 X27.882 Y188.086 E0.02681
G1 X27.477 Y187.781 E0.02600
G1 X27.118 Y187.446 E0.02519
G1 X27.000 Y187.310 E0.00924
G1 F8640
G1 X27.174 Y187.334 E-0.04048
G1 X27.602 Y187.388 E-0.09973
G1 X28.034 Y187.357 E-0.09989
G1 X28.452 Y187.242 E-0.10014
G1 X28.838 Y187.049 E-0.09975
G1 X29.181 Y186.783 E-0.10006
G1 X29.464 Y186.455 E-0.10012
G1 X29.677 Y186.080 E-0.09964
G1 X29.814 Y185.669 E-0.10002
G1 X29.867 Y185.239 E-0.09991
G1 X29.837 Y184.808 E-0.09989
G1 X29.722 Y184.390 E-0.10014
G1 X29.528 Y184.003 E-0.09993
G1 X29.288 Y183.694 E-0.09033
G1 E-0.07000 F2100.00000
G1 Z0.560 F10800.000
G1 X38.252 Y188.827
G1 Z0.360
G1 E1.40000 F2100.00000
G1 F1200
G1 X35.347 Y189.326 E0.15120
G1 X33.941 Y189.513 E0.07279
G1 X32.744 Y189.565 E0.06143
G1 X31.974 Y189.480 E0.03976
G1 X31.925 Y189.447 E0.00301
G1 X31.637 Y189.463 E0.01483
G1 X31.012 Y189.448 E0.03203
G1 X30.398 Y189.384 E0.03169
G1 X29.801 Y189.270 E0.03118
G1 X29.225 Y189.111 E0.03063
G1 X28.678 Y188.906 E0.02997
G1 X28.165 Y188.658 E0.02924
G1 X27.689 Y188.370 E0.02853
G1 X27.256 Y188.044 E0.02781
G1 X26.870 Y187.684 E0.02707
G1 X26.534 Y187.294 E0.02641
G1 X26.252 Y186.878 E0.02579
G1 X26.024 Y186.439 E0.02540
G1 X25.854 Y185.982 E0.02500
G1 X25.742 Y185.511 E0.02485
G1 X25.690 Y185.028 E0.02490
G1 X25.698 Y184.541 E0.02500
G1 X25.766 Y184.051 E0.02540
G1 X25.894 Y183.564 E0.02579
G1 X26.081 Y183.085 E0.02641
G1 X26.325 Y182.617 E0.02707
G1 X26.624 Y182.165 E0.02781
G1 X26.976 Y181.735 E0.02852
G1 X27.377 Y181.330 E0.02926
G1 X27.825 Y180.954 E0.02997
G1 X28.314 Y180.612 E0.03063
G1 X28.839 Y180.307 E0.03117
G1 X29.397 Y180.041 E0.03170
G1 X29.981 Y179.818 E0.03205
G1 X30.259 Y179.736 E0.01490
G1 X30.293 Y179.690 E0.00293
G1 X30.991 Y179.353 E0.03973
G1 X32.136 Y179.003 E0.06144
G1 X33.524 Y178.709 E0.07280
G1 X36.429 Y178.211 E0.15115
G1 X36.900 Y178.580 E0.03072
G1 X37.453 Y179.109 E0.03925
G1 X37.951 Y179.688 E0.03920
G1 X38.390 Y180.314 E0.03921
G1 X38.766 Y180.980 E0.03922
G1 X39.075 Y181.679 E0.03923
G1 X39.313 Y182.406 E0.03923
G1 X39.479 Y183.152 E0.03921
G1 X39.572 Y183.911 E0.03921
G1 X39.589 Y184.676 E0.03923
G1 X39.532 Y185.438 E0.03923
G1 X39.399 Y186.191 E0.03922
G1 X39.195 Y186.928 E0.03921
G1 X38.918 Y187.640 E0.03920
G1 X38.573 Y188.323 E0.03925
G1 X38.284 Y188.777 E0.02757
G1 X37.918 Y188.608 F10800.000
G1 F8640
G1 X35.347 Y189.326 E-0.68996
G1 X33.941 Y189.513 E-0.32766
G1 X32.744 Y189.565 E-0.27652
G1 X32.590 Y189.548 E-0.03586
G1 E-0.07000 F2100.00000
G1 Z0.560 F10800.000
G1 X34.522 Y188.986
G1 Z0.360
G1 E1.40000 F2100.00000
G1 F1200
G1 X30.012 Y184.477 E0.33618
G1 X30.091 Y184.764 E0.01573
G1 X30.114 Y185.076 E0.01648
G1 X33.945 Y188.908 E0.28562
G1 X33.472 Y188.933 E0.02495
G1 X30.088 Y185.548 E0.25230
G1 X30.066 Y185.726 E0.00942
G1 X29.991 Y185.950 E0.01244
G1 X32.995 Y188.954 E0.22391
G1 X32.764 Y188.963 E0.01217
G1 X32.475 Y188.932 E0.01535
G1 X29.846 Y186.303 E0.19597
G1 X29.663 Y186.618 E0.01920
G1 X31.893 Y188.848 E0.16627
G1 X31.405 Y188.857 E0.02577
G1 X29.432 Y186.885 E0.14702
G1 X29.358 Y186.971 E0.00596
G1 X29.168 Y187.118 E0.01272
G1 X30.880 Y188.831 E0.12764
G1 X30.307 Y188.756 E0.03046
G1 X28.871 Y187.320 E0.10706
G1 X28.538 Y187.485 E0.01958
G1 X29.663 Y188.610 E0.08385
G1 X29.411 Y188.540 E0.01378
G1 X28.905 Y188.350 E0.02849
G1 X28.017 Y187.461 E0.06622
G1 F8640
G1 X28.905 Y188.350 E-0.29007
G1 X29.411 Y188.540 E-0.12479
G1 X29.663 Y188.610 E-0.06037
G1 X28.538 Y187.485 E-0.36729
G1 X28.871 Y187.320 E-0.08579
G1 X30.101 Y188.550 E-0.40167
G1 E-0.07000 F2100.00000
G1 Z0.560 F10800.000
G1 X27.431 Y182.892
G1 Z0.360
G1 E1.40000 F2100.00000
G1 F1200
G1 X27.089 Y182.549 E0.02550
G1 X27.311 Y182.273 E0.01867
G1 X27.758 Y182.721 E0.03336
G1 X28.205 Y182.776 E0.02371
G1 X28.364 Y182.829 E0.00887
G1 X27.547 Y182.011 E0.06095
G1 X27.795 Y181.762 E0.01856
G1 X34.824 Y188.791 E0.52396
G1 X35.263 Y188.732 E0.02336
G1 X28.066 Y181.535 E0.53651
G1 X28.349 Y181.319 E0.01873
G1 X35.689 Y188.659 E0.54710
G1 X36.114 Y188.586 E0.02273
G1 X28.643 Y181.115 E0.55692
G1 X28.958 Y180.932 E0.01920
G1 X36.539 Y188.513 E0.56513
G1 X36.964 Y188.440 E0.02273
G1 X29.283 Y180.760 E0.57252
G1 X29.621 Y180.599 E0.01970
G1 X33.627 Y184.605 E0.29861
G1 X33.661 Y184.141 F10800.000
G1 F1200
G1 X29.980 Y180.460 E0.27437
G1 X30.352 Y180.334 E0.02069
G1 X33.501 Y183.483 E0.23474
G1 X33.534 Y183.216 E0.01418
G1 X33.583 Y183.067 E0.00825
G1 X30.688 Y180.165 E0.21607
M73 Q0 S282
G1 X31.019 Y180.005 E0.01939
G1 X33.716 Y182.702 E0.20104
G1 X33.898 Y182.385 E0.01924
G1 X31.375 Y179.863 E0.18803
G1 X31.756 Y179.746 E0.02102
G1 X34.121 Y182.111 E0.17625
G1 X34.242 Y181.971 E0.00974
G1 X34.375 Y181.867 E0.00892
G1 X32.138 Y179.629 E0.16680
G1 X32.537 Y179.531 E0.02169
G1 X34.661 Y181.655 E0.15834
G1 X34.993 Y181.489 E0.01956
G1 X32.948 Y179.444 E0.15242
M73 P0 R280
G1 X33.360 Y179.357 E0.02215
G1 X35.372 Y181.370 E0.15005
G1 X35.521 Y181.329 E0.00813
G1 X35.809 Y181.308 E0.01520
G1 X33.775 Y179.275 E0.15158
G1 X34.200 Y179.202 E0.02273
G1 X36.531 Y181.532 E0.17373
G1 F8640
G1 X34.200 Y179.202 E-0.76106
G1 X33.775 Y179.275 E-0.09959
G1 X35.213 Y180.712 E-0.46935
G1 E-0.07000 F2100.00000
G1 Z0.560 F10800.000
G1 X37.947 Y180.458
G1 Z0.360
G1 E1.40000 F2100.00000
G1 F1200
G1 X36.192 Y178.703 E0.13081
G1 F8640
G1 X37.947 Y180.458 E-0.57301
G1 E-0.82699 F2100.00000
G1 Z0.560 F10800.000
G1 X38.523 Y181.532
G1 Z0.360
G1 E1.40000 F2100.00000
G1 F1200
G1 X35.901 Y178.910 E0.19548
G1 X35.476 Y178.983 E0.02273
G1 X38.576 Y182.084 E0.23114
G1 X38.734 Y182.565 E0.02670
G1 X38.784 Y182.789 E0.01212
G1 X35.051 Y179.056 E0.27831
G1 X34.625 Y179.129 E0.02273
G1 X38.906 Y183.410 E0.31910
G1 X38.973 Y183.954 E0.02893
G1 X38.973 Y183.975 E0.00107
G1 X38.372 Y183.374 E0.04479
G1 X38.396 Y183.895 E0.02751
G1 X38.985 Y184.485 E0.04393
G1 X38.966 Y184.964 E0.02527
G1 X38.335 Y184.333 E0.04703
G1 X38.211 Y184.706 E0.02076
G1 X38.926 Y185.421 E0.05329
G1 X38.851 Y185.845 E0.02267
G1 X38.039 Y185.033 E0.06054
G1 X37.954 Y185.182 E0.00908
G1 X37.832 Y185.324 E0.00984
G1 X38.760 Y186.252 E0.06917
G1 X38.652 Y186.641 E0.02132
G1 X37.593 Y185.583 E0.07888
G1 X37.313 Y185.800 E0.01871
G1 X38.520 Y187.008 E0.09000
G1 X38.381 Y187.367 E0.02028
G1 X36.991 Y185.977 E0.10355
G1 X36.823 Y186.062 E0.00992
G1 X36.631 Y186.115 E0.01052
G1 X38.216 Y187.700 E0.11815
G1 X38.048 Y188.030 E0.01953
G1 X36.218 Y186.200 E0.13641
G1 X35.874 Y186.225 E0.01818
G1 X35.726 Y186.206 E0.00787
G1 X37.814 Y188.294 E0.15564
G1 X37.389 Y188.367 E0.02273
G1 X35.084 Y186.062 E0.17182
G1 F8640
G1 X37.389 Y188.367 E-0.75267
G1 X37.814 Y188.294 E-0.09959
G1 X36.351 Y186.831 E-0.47775
G1 E-0.07000 F2100.00000
G1 Z0.560 F10800.000
G1 X84.119 Y175.487
G1 Z0.360
G1 E1.40000 F2100.00000
G1 F1200
G1 X84.038 Y174.814 E0.03480
G1 X84.022 Y174.135 E0.03483
G1 X84.073 Y173.458 E0.03482
G1 X84.191 Y172.790 E0.03478
G1 X84.373 Y172.136 E0.03484
G1 X84.618 Y171.503 E0.03483
G1 X84.924 Y170.897 E0.03480
G1 X85.288 Y170.325 E0.03481
G1 X85.706 Y169.790 E0.03483
G1 X86.175 Y169.300 E0.03481
G1 X86.690 Y168.858 E0.03479
G1 X87.246 Y168.468 E0.03485
G1 X87.837 Y168.134 E0.03480
G1 X88.458 Y167.860 E0.03484
G1 X89.102 Y167.648 E0.03480
G1 X89.765 Y167.501 E0.03482
G1 X90.436 Y167.419 E0.03469
